X:1
T:Walzer
R:walzer
C:traditionell
A:Tirol
%%textfont Helvetica-Narrow 10pt
%%begintext align
B:"Instrumentale Volksmusik aus Tirol", K.Horak, Eigenverlag des Instituts f. Tiroler Volksmusikforschung, Innsbruck 1985
N:im buch ganz in C, einstimmig, erster ton g'
N:im buch nr. 89 s. 89
%%endtext 
F:http://simonwascher.info 
Z:abc transcription Simon Wascher
M:3/4
L:1/8
K:C
Gce |\
g3 eag | fdBagB | c2 cedf | {f}e2 egfa |\
g3 eag | fdBagB | c2 egfd |1 c2 z :|\
                          [2 c2 z2 ||
|: eg |\
a2 agag | {f}f2 fd B2 | g2 gfgf | {f}e2 ec A2 |\
f2 fefe | {e}d2 dcBA | GABcdB | c2 z2 :|
%%wordsfont Times-Italic 11pt
W:aus Simon Waschers TradArchiv



